X:53
T:Jigs simple chords 158
M:3/4
L:1/8
K:D
d/B/[A2D,2F,2A,2]d =cB | A[dD,F,A,] ef ga | g[fD,F,A,] ed cB | A[GE,G,B,] FG AF | D[A2D,2F,2A,2]d =cB |
A[dD,F,A,] ef ga | g[fD,F,A,] ed cB | A[AA,CEG] dc d2 | d/B/[A2D,2F,2A,2]d =cB |
A[dD,F,A,] ef ga | g[fD,F,A,] ed cB | A[GE,G,B,] FG AF | D[A2D,2F,2A,2]d =cB |
A[dD,F,A,] ef ga | g[fD,F,A,] ed cB | A[AA,CEG] dc d2 | f/e/[dD,F,A,] fa df |
a[dD,F,A,] fa ag | f[=cC,E,G,] eg ce | g[=cC,E,G,] eg gf | e[fD,F,A,] ef gf |
g[aD,F,A,] ga ba | g[fDFA,] ed cB | A[AA,CEG] dc d2 | f/e/[dD,F,A,] fa df |
a[dD,F,A,] fa ag | f[=cC,E,G,] eg ce | g[=cC,E,G,] eg gf | e[fD,F,A,] ef gf |
g[aD,F,A,] ga ba | g[fDFA,] ed cB | A[AA,CEG] dc d2 |


